X: 1
T: The Mason's Apron
R: reel
M: 4/4
L: 1/8
K: Amaj
|:e2|aAA2 ABAF|EFAc dcBA|dBB2 BcBA|Bcde fefg|aAA2 ABAF|EFAc dcBA|dcde fefa|A2 cB A2:||:ed|cAeA fAeA|cAeA fedc|dBfB aBfB|defg afed|cAeA fAeA|EFAc dcBA|d2dc defa|A2 cB A2:||:ed|ceee feee|ceee fedc|dfff afff|dfff agfe|ceee feee|EFAc dcBA|dcde fefa|A2 cB A2:||:e2|aeee aeee|aege feee|beee beee|beae gefg|aeee aeee|aege feee|dcde fefa|A2 cB A2:||ed|c2Ac eAce|AceA cecA|d2 Ad fAdf|AdfA dfed|c2Ac eAce|AceA cecA|d2dc defa|A2 cB A2:|


Tune 74	Setting 24515

